X:97
T:B097-  Cupid's trepan
Q:1/4=120
L:1/4
M:6/4
K:Cdorian
G|c3/2d/2c=B2B|c3/2d/2cA2c/2d/2|e3/2f/2eBcd|e3e2":s:"B|\
edefef|gfedef|e3/2d/2cdc=B|c3/2d/2cGG3/2B/2|\
G3/2F/2Eede|(c3":s:"c2)|]

